public/images/hashed/740d9310e1828c04fdf0ad9bedcafaac.svg

<?xml version="1.0" encoding="UTF-8"?>
<svg width="80px" height="80px" viewBox="0 0 80 80" version="1.1" xmlns="http://www.w3.org/2000/svg" xmlns:xlink="http://www.w3.org/1999/xlink">
    <!-- Generator: Sketch 64 (93537) - https://sketch.com -->
    <title>Icon-Architecture/64/Arch_AWS-Deep-Learning-Containers_64</title>
    <desc>Created with Sketch.</desc>
    <defs>
        <linearGradient x1="0%" y1="100%" x2="100%" y2="0%" id="linearGradient-1">
            <stop stop-color="#055F4E" offset="0%"></stop>
            <stop stop-color="#56C0A7" offset="100%"></stop>
        </linearGradient>
    </defs>
    <g id="Icon-Architecture/64/Arch_AWS-Deep-Learning-Containers_64" stroke="none" stroke-width="1" fill="none" fill-rule="evenodd">
        <g id="Icon-Architecture-BG/64/Machine-Learning" fill="url(#linearGradient-1)">
            <rect id="Rectangle" x="0" y="0" width="80" height="80"></rect>
        </g>
        <path d="M15.7649639,28.083 L20.6249173,28.083 L20.6249173,26.083 L16.8749532,26.083 L18.5889368,23 L24.409881,23 L25.964866,25.833 L23.881886,30 L17.9999424,30 L17.9999424,32 L24.4998801,32 C24.8788765,32 25.2248731,31.786 25.3948715,31.447 L27.6188502,27 L30.4418231,27 L32.6468019,31.444 C32.8158003,31.784 33.161797,32 33.5417933,32 L37.330757,32 L35.6167734,35 L16.5669562,35 L14.1549793,30.98 L15.7649639,28.083 Z M27.6188502,19 L34.3817853,19 L36.1057688,22.447 C36.2757671,22.786 36.6207638,23 36.9997602,23 L43.4106987,23 L45.5006786,26.761 L42.9807028,31.802 L44.7696856,32.697 L46.6776673,28.879 L47.8456561,30.98 L45.4336793,35 L37.9197513,35 L42.1607107,27.579 L40.4237273,26.587 L38.473746,30 L34.1617874,30 L32.1108071,25.865 L34.3737854,22.471 L32.7098013,21.361 L30.2848246,25 L27.7888485,25 L26.1288645,21.978 L27.6188502,19 Z M15.1429699,36.514 C15.3239681,36.815 15.648965,37 15.9999616,37 L45.9996738,37 C46.3516705,37 46.6766673,36.815 46.8576656,36.514 L49.8576368,31.514 C50.0406351,31.208 50.047635,30.826 49.8736367,30.514 L44.8736846,21.514 C44.6986863,21.196 44.3636895,21 43.999693,21 L37.6187542,21 L35.8947708,17.552 C35.7247724,17.213 35.3787757,17 34.9997794,17 L26.9998561,17 C26.6208597,17 26.2758631,17.213 26.1058647,17.552 L24.3818812,21 L17.9999424,21 C17.6369459,21 17.3019491,21.196 17.1259508,21.514 L12.1259988,30.514 C11.9520005,30.826 11.9590004,31.208 12.1429986,31.514 L15.1429699,36.514 Z M59.0985482,43.004 C58.6355526,42.96 58.2055567,43.236 58.0545582,43.673 C57.9945588,43.846 51.8656176,61 35.9997698,61 C30.9338184,61 14.610975,59.61 14.0169807,42 L53.9995971,42 C54.3425938,42 54.6615907,41.824 54.845589,41.534 C55.0285872,41.244 55.050587,40.88 54.9035884,40.57 C52.754609,36.05 54.3385938,32.701 55.2335853,31.342 C56.4765733,32.251 58.8505506,34.475 58.0305584,37.757 C57.9505592,38.074 58.0315584,38.409 58.2455564,38.655 C58.4595543,38.901 58.7815512,39.029 59.1065481,38.994 C59.1505477,38.991 63.282508,38.578 65.6754851,40.2 C64.8354931,41.309 62.7535131,43.369 59.0985482,43.004 L59.0985482,43.004 Z M67.7064656,39.292 C65.6214856,37.208 62.0745196,36.932 60.1805378,36.942 C60.469535,32.943 57.343565,30.12 55.471583,29.118 C55.0745868,28.904 54.5775916,28.985 54.2685945,29.318 C54.0935962,29.505 50.2986326,33.687 52.5066114,40 L13,40 C12.4479957,40 12,40.447 12,41 C12,49.269 15.0499707,55.368 21.063913,59.129 C26.4508614,62.497 32.7338011,63 35.9997698,63 C51.3386226,63 58.2485563,48.474 59.6645428,45.044 C65.3554882,45.177 67.7824649,40.663 67.8874639,40.46 C68.0884619,40.073 68.0154626,39.601 67.7064656,39.292 L67.7064656,39.292 Z" id="AWS-Deep-Learning-Containers_Icon_64_Squid" fill="#FFFFFF"></path>
    </g>
</svg>

<svg xmlns="http://www.w3.org/2000/svg" width="80" height="80"><defs><linearGradient id="a" x1="0%" x2="100%" y1="100%" y2="0%"><stop offset="0%" stop-color="#055F4E"/><stop offset="100%" stop-color="#56C0A7"/></linearGradient></defs><g fill="none" fill-rule="evenodd"><path fill="url(#a)" d="M0 0h80v80H0z"/><path fill="#FFF" d="M15.765 28.083h4.86v-2h-3.75L18.589 23h5.82l1.556 2.833L23.882 30H18v2h6.5c.379 0 .725-.214.895-.553L27.619 27h2.823l2.205 4.444a1 1 0 0 0 .895.556h3.789l-1.714 3h-19.05l-2.412-4.02 1.61-2.897ZM27.619 19h6.763l1.724 3.447A1 1 0 0 0 37 23h6.41l2.09 3.761-2.52 5.041 1.79.895 1.908-3.818 1.168 2.101L45.434 35H37.92l4.24-7.421-1.736-.992L38.474 30h-4.312l-2.051-4.135 2.263-3.394-1.664-1.11L30.285 25h-2.496l-1.66-3.022L27.619 19ZM15.143 36.514A1 1 0 0 0 16 37h30c.352 0 .677-.185.858-.486l3-5a1 1 0 0 0 .016-1l-5-9A.996.996 0 0 0 44 21h-6.381l-1.724-3.448A1 1 0 0 0 35 17h-8a.999.999 0 0 0-.894.552L24.382 21H18a.998.998 0 0 0-.874.514l-5 9a.998.998 0 0 0 .017 1l3 5Zm43.956 6.49a1.001 1.001 0 0 0-1.044.669C57.995 43.846 51.865 61 36 61c-5.066 0-21.389-1.39-21.983-19H54a1.002 1.002 0 0 0 .904-1.43c-2.15-4.52-.565-7.869.33-9.228 1.243.909 3.617 3.133 2.797 6.415a1.001 1.001 0 0 0 1.076 1.237c.044-.003 4.176-.416 6.568 1.206-.84 1.109-2.921 3.169-6.576 2.804Zm8.607-3.712c-2.085-2.084-5.631-2.36-7.525-2.35.289-3.999-2.837-6.822-4.71-7.824a.999.999 0 0 0-1.202.2c-.175.187-3.97 4.369-1.762 10.682H13a1 1 0 0 0-1 1c0 8.269 3.05 14.368 9.064 18.129C26.45 62.497 32.734 63 36 63c15.339 0 22.249-14.526 23.665-17.956 5.69.133 8.117-4.381 8.222-4.584a1 1 0 0 0-.18-1.168Z"/></g></svg>
